src/lib/packages/icons/src/assets/line/note-list-check.svg

<svg width="24" height="24" viewBox="0 0 24 24" fill="none" xmlns="http://www.w3.org/2000/svg">
<path d="M17 2.25H7C4.582 2.25 3.25 3.582 3.25 6V18C3.25 20.418 4.582 21.75 7 21.75H17C19.418 21.75 20.75 20.418 20.75 18V6C20.75 3.582 19.418 2.25 17 2.25ZM19.25 18C19.25 19.577 18.577 20.25 17 20.25H7C5.423 20.25 4.75 19.577 4.75 18V6C4.75 4.423 5.423 3.75 7 3.75H17C18.577 3.75 19.25 4.423 19.25 6V18ZM17.25 8C17.25 8.414 16.914 8.75 16.5 8.75H12.5C12.086 8.75 11.75 8.414 11.75 8C11.75 7.586 12.086 7.25 12.5 7.25H16.5C16.914 7.25 17.25 7.586 17.25 8ZM17.25 12C17.25 12.414 16.914 12.75 16.5 12.75H12.5C12.086 12.75 11.75 12.414 11.75 12C11.75 11.586 12.086 11.25 12.5 11.25H16.5C16.914 11.25 17.25 11.586 17.25 12ZM10.03 6.80298C10.323 7.09598 10.323 7.57101 10.03 7.86401L8.69702 9.19702C8.55102 9.34302 8.35899 9.41699 8.16699 9.41699C7.97599 9.41699 7.78296 9.344 7.63696 9.198L6.96997 8.53101C6.67697 8.23801 6.67697 7.76297 6.96997 7.46997C7.26197 7.17797 7.73701 7.17697 8.03101 7.46997L8.16797 7.60699L8.97095 6.80402C9.26295 6.51002 9.73703 6.50998 10.03 6.80298ZM10.03 10.803C10.323 11.096 10.323 11.571 10.03 11.864L8.69702 13.197C8.55102 13.343 8.35899 13.417 8.16699 13.417C7.97599 13.417 7.78296 13.344 7.63696 13.198L6.96997 12.531C6.67697 12.238 6.67697 11.763 6.96997 11.47C7.26197 11.178 7.73701 11.177 8.03101 11.47L8.16797 11.607L8.97095 10.804C9.26295 10.51 9.73703 10.51 10.03 10.803ZM17.25 16C17.25 16.414 16.914 16.75 16.5 16.75H12.5C12.086 16.75 11.75 16.414 11.75 16C11.75 15.586 12.086 15.25 12.5 15.25H16.5C16.914 15.25 17.25 15.586 17.25 16ZM10.03 14.803C10.323 15.096 10.323 15.571 10.03 15.864L8.69702 17.197C8.55102 17.343 8.35899 17.417 8.16699 17.417C7.97599 17.417 7.78296 17.344 7.63696 17.198L6.96997 16.531C6.67697 16.238 6.67697 15.763 6.96997 15.47C7.26197 15.178 7.73701 15.177 8.03101 15.47L8.16797 15.607L8.97095 14.804C9.26295 14.51 9.73703 14.51 10.03 14.803Z" fill="currentColor"/>
</svg>

<svg xmlns="http://www.w3.org/2000/svg" width="24" height="24" fill="none"><path fill="currentColor" d="M17 2.25H7C4.582 2.25 3.25 3.582 3.25 6v12c0 2.418 1.332 3.75 3.75 3.75h10c2.418 0 3.75-1.332 3.75-3.75V6c0-2.418-1.332-3.75-3.75-3.75ZM19.25 18c0 1.577-.673 2.25-2.25 2.25H7c-1.577 0-2.25-.673-2.25-2.25V6c0-1.577.673-2.25 2.25-2.25h10c1.577 0 2.25.673 2.25 2.25v12Zm-2-10a.75.75 0 0 1-.75.75h-4a.75.75 0 0 1 0-1.5h4a.75.75 0 0 1 .75.75Zm0 4a.75.75 0 0 1-.75.75h-4a.75.75 0 0 1 0-1.5h4a.75.75 0 0 1 .75.75Zm-7.22-5.197a.75.75 0 0 1 0 1.061L8.697 9.197a.748.748 0 0 1-1.06.001l-.667-.667A.75.75 0 1 1 8.031 7.47l.137.137.803-.803a.747.747 0 0 1 1.059-.001Zm0 4a.75.75 0 0 1 0 1.061l-1.333 1.333a.748.748 0 0 1-1.06.001l-.667-.667a.75.75 0 1 1 1.061-1.061l.137.137.803-.803a.747.747 0 0 1 1.059-.001ZM17.25 16a.75.75 0 0 1-.75.75h-4a.75.75 0 0 1 0-1.5h4a.75.75 0 0 1 .75.75Zm-7.22-1.197a.75.75 0 0 1 0 1.061l-1.333 1.333a.748.748 0 0 1-1.06.001l-.667-.667a.75.75 0 1 1 1.061-1.061l.137.137.803-.803a.747.747 0 0 1 1.059-.001Z"/></svg>
